src/assets/images/ranks/team_bronze_3.svg

<svg height="240" viewBox="0 0 160 240" width="160" xmlns="http://www.w3.org/2000/svg" xmlns:xlink="http://www.w3.org/1999/xlink"><defs><circle id="a" cx="63" cy="83" r="57"/><mask id="b" fill="#fff"><use fill="#fff" fill-rule="evenodd" xlink:href="#a"/></mask></defs><g fill="none" fill-rule="evenodd"><g transform="translate(17 43)"><g fill="#6f472f"><path d="m34 120h58v36l-29 19.440402-29-19.440402z"/><path d="m12 11.2148438c12-7.47656255 28.8333333-11.2148438 50.5-11.2148438s38.5 3.73828125 50.5 11.2148438l-10 43h-81z"/><circle cx="63" cy="83" r="63"/></g><use fill="#3d2719" xlink:href="#a"/><path d="m61.0020573 97.0671746c-.6104378-.5110268-1.4781074-1.0938849-2.6030086-1.7485743.3112249-1.4737264.5701238-2.4987575.7766968-3.0750932s.5316815-1.1806772.9753256-1.8130245c-3.7956441.6091532-6.7064734.7371273-8.7324879.3839222-2.0260144-.3532051-4.3381703-1.3917278-6.9364675-3.1155683l-5.8475005-5.6880722c.6868067 7.6478719 1.2712808 12.7762771 1.7534222 15.3852154.6399489 3.4628583 1.960535 8.2207583 2.4261498 10.3163123.9952024 4.479024 1.8529408 8.278877 2.5732152 11.399559l-.9052867.888149-.0832088-.041619c-.5044771-.257199-3.2222342-1.71158-5.9346264-4.504434-.9931472-1.022609-2.3489208-2.9687-4.0673208-5.838274-.9313065-7.021813-1.3969597-12.292734-1.3969597-15.8127625s.4656532-8.3878589 1.3969597-14.6034912l-1.3969597-1.7552764c.65405-.6796312 1.0150322-1.1882098 1.0829463-1.525736.4761478-2.3664029-.0212514-4.1942628 0-5.3280508.085426-4.5575756-.2471703-9.136077.7383851-12.3939379 1.4320032-4.7336429 4.0420431-8.84856 7.8301199-12.3447514 3.4259088-2.3093538 6.2067534-3.928662 8.3425337-4.8579247 2.1357802-.9292627 6.1377852-1.5938434 12.006015-1.9937421l.5283343.0370836c5.5807275.4033358 9.4066211 1.0555553 11.4776807 1.9566585 2.1357803.9292627 4.9166249 2.5485709 8.3425337 4.8579247 3.7880768 3.4961914 6.3981167 7.6111085 7.8301199 12.3447514.9855554 3.2578609.6529591 7.8363623.7383851 12.3939379.0212514 1.133788-.4761478 2.9616479 0 5.3280508.0679141.3375262.4288963.8461048 1.0829463 1.525736l-1.3969597 1.7552764c.9313065 6.2156323 1.3969597 11.0834627 1.3969597 14.6034912s-.4656532 8.7909495-1.3969597 15.8127625c-1.7184 2.869574-3.0741736 4.815665-4.0673208 5.838274-2.7123922 2.792854-5.4301493 4.247235-5.9346264 4.504434l-.0832088.041619-.9052867-.888149c.7202744-3.120682 1.5780128-6.920535 2.5732152-11.399559.4656148-2.095554 1.7862009-6.853454 2.4261498-10.3163123.4821414-2.6089383 1.0666155-7.7373435 1.7534222-15.3852154l-5.8475005 5.6880722c-2.5982972 1.7238405-4.9104531 2.7623632-6.9364675 3.1155683-2.0260145.3532051-4.9368438.225231-8.7324879-.3839222.4436441.6323473.7687526 1.2366888.9753256 1.8130245s.4654719 1.6013668.7766968 3.0750932c-1.1249012.6546894-1.9925708 1.2375475-2.6030086 1.7485743s-1.2764187.8935802-1.9979427 1.1476603c-.721524-.2540801-1.3875049-.6366335-1.9979427-1.1476603zm-13.0020573-26.519849c-1.4416692.4050739-2.7765202 1.1786177-4.004553 2.3206313-.2836629 1.4707768-.2836629 2.6239619 0 3.4595553.1981403.5836671 1.5066242 2.3865923 3.3431659 3.6903562 2.1073212 1.4959907 4.8501801 2.4954353 6.4018638 2.9502524 1.9359896.5674617 3.871618.8024153 5.8068852.7048608v-7.8932938c-.3280408-1.5168728-.7986482-2.6343231-1.4118223-3.3523508-.390194-.4569177-1.9032921-2.1584411-3.6595196-2.5558582-2.3835337-.5393702-5.2309238.3260052-6.47602.6758468zm30 0c-1.2450962-.3498416-4.0924863-1.215217-6.47602-.6758468-1.7562275.3974171-3.2693256 2.0989405-3.6595196 2.5558582-.6131741.7180277-1.0837815 1.835478-1.4118223 3.3523508v7.8932938c1.9352672.0975545 3.8708956-.1373991 5.8068852-.7048608 1.5516837-.4548171 4.2945426-1.4542617 6.4018638-2.9502524 1.8365417-1.3037639 3.1450256-3.1066891 3.3431659-3.6903562.2836629-.8355934.2836629-1.9887785 0-3.4595553-1.2280328-1.1420136-2.5628838-1.9155574-4.004553-2.3206313z" fill="#ffa672" mask="url(#b)"/></g><g fill="#ffa672" transform="translate(31 3)"><path d="m83.8080495 12 15 21-15 21-15-21z"/><path d="m49.4040248 0 15 21-15 21-15-21z"/><path d="m15 12 15 21-15 21-15-21z"/></g></g></svg>

<?xml version="1.0" encoding="UTF-8"?>
<svg width="160px" height="240px" viewBox="0 0 160 240" version="1.1" xmlns="http://www.w3.org/2000/svg" xmlns:xlink="http://www.w3.org/1999/xlink">
    <title>team_bronze_3</title>
    <defs>
        <circle id="path-1" cx="63" cy="83" r="57"></circle>
    </defs>
    <g id="team_bronze_3" stroke="none" stroke-width="1" fill="none" fill-rule="evenodd">
        <g id="Group-12" transform="translate(17.000000, 43.000000)">
            <polygon id="Rectangle-Copy-68" fill="#6F472F" points="34 120 92 120 92 156 63 175.440402 34 156"></polygon>
            <path d="M12,11.2148438 C24,3.73828125 40.8333333,0 62.5,0 C84.1666667,0 101,3.73828125 113,11.2148438 L103,54.2148438 L22,54.2148438 L12,11.2148438 Z" id="Rectangle-Copy-73" fill="#6F472F"></path>
            <circle id="Oval-Copy-12" fill="#6F472F" cx="63" cy="83" r="63"></circle>
            <mask id="mask-2" fill="white">
                <use xlink:href="#path-1"></use>
            </mask>
            <use id="Oval-Copy-19" fill="#3D2719" xlink:href="#path-1"></use>
            <path d="M61.0020573,97.0671746 C60.3916195,96.5561478 59.5239499,95.9732897 58.3990487,95.3186003 C58.7102736,93.8448739 58.9691725,92.8198428 59.1757455,92.2435071 C59.3823185,91.6671714 59.707427,91.0628299 60.1510711,90.4304826 C56.355427,91.0396358 53.4445977,91.1676099 51.4185832,90.8144048 C49.3925688,90.4611997 47.0804129,89.422677 44.4821157,87.6988365 L38.6346152,82.0107643 C39.3214219,89.6586362 39.905896,94.7870414 40.3880374,97.3959797 C41.0279863,100.858838 42.3485724,105.616738 42.8141872,107.712292 C43.8093896,112.191316 44.667128,115.991169 45.3874024,119.111851 L44.4821157,120 L44.3989069,119.958381 C43.8944298,119.701182 41.1766727,118.246801 38.4642805,115.453947 C37.4711333,114.431338 36.1153597,112.485247 34.3969597,109.615673 C33.4656532,102.59386 33,97.322939 33,93.8029105 C33,90.282882 33.4656532,85.4150516 34.3969597,79.1994193 L33,77.4441429 C33.65405,76.7645117 34.0150322,76.2559331 34.0829463,75.9184069 C34.5590941,73.552004 34.0616949,71.7241441 34.0829463,70.5903561 C34.1683723,66.0327805 33.835776,61.4542791 34.8213314,58.1964182 C36.2533346,53.4627753 38.8633745,49.3478582 42.6514513,45.8516668 C46.0773601,43.542313 48.8582047,41.9230048 50.993985,40.9937421 C53.1297652,40.0644794 57.1317702,39.3998987 63,39 L63.5283343,39.0370836 C69.1090618,39.4404194 72.9349554,40.0926389 75.006015,40.9937421 C77.1417953,41.9230048 79.9226399,43.542313 83.3485487,45.8516668 C87.1366255,49.3478582 89.7466654,53.4627753 91.1786686,58.1964182 C92.164224,61.4542791 91.8316277,66.0327805 91.9170537,70.5903561 C91.9383051,71.7241441 91.4409059,73.552004 91.9170537,75.9184069 C91.9849678,76.2559331 92.34595,76.7645117 93,77.4441429 L91.6030403,79.1994193 C92.5343468,85.4150516 93,90.282882 93,93.8029105 C93,97.322939 92.5343468,102.59386 91.6030403,109.615673 C89.8846403,112.485247 88.5288667,114.431338 87.5357195,115.453947 C84.8233273,118.246801 82.1055702,119.701182 81.6010931,119.958381 L81.5178843,120 L80.6125976,119.111851 C81.332872,115.991169 82.1906104,112.191316 83.1858128,107.712292 C83.6514276,105.616738 84.9720137,100.858838 85.6119626,97.3959797 C86.094104,94.7870414 86.6785781,89.6586362 87.3653848,82.0107643 L81.5178843,87.6988365 C78.9195871,89.422677 76.6074312,90.4611997 74.5814168,90.8144048 C72.5554023,91.1676099 69.644573,91.0396358 65.8489289,90.4304826 C66.292573,91.0628299 66.6176815,91.6671714 66.8242545,92.2435071 C67.0308275,92.8198428 67.2897264,93.8448739 67.6009513,95.3186003 C66.4760501,95.9732897 65.6083805,96.5561478 64.9979427,97.0671746 C64.3875049,97.5782014 63.721524,97.9607548 63,98.2148349 C62.278476,97.9607548 61.6124951,97.5782014 61.0020573,97.0671746 Z M48,70.5473256 C46.5583308,70.9523995 45.2234798,71.7259433 43.995447,72.8679569 C43.7117841,74.3387337 43.7117841,75.4919188 43.995447,76.3275122 C44.1935873,76.9111793 45.5020712,78.7141045 47.3386129,80.0178684 C49.4459341,81.5138591 52.188793,82.5133037 53.7404767,82.9681208 C55.6764663,83.5355825 57.6120947,83.7705361 59.5473619,83.6729816 L59.5473619,75.7796878 C59.2193211,74.262815 58.7487137,73.1453647 58.1355396,72.427337 C57.7453456,71.9704193 56.2322475,70.2688959 54.47602,69.8714788 C52.0924863,69.3321086 49.2450962,70.197484 48,70.5473256 Z M78,70.5473256 C76.7549038,70.197484 73.9075137,69.3321086 71.52398,69.8714788 C69.7677525,70.2688959 68.2546544,71.9704193 67.8644604,72.427337 C67.2512863,73.1453647 66.7806789,74.262815 66.4526381,75.7796878 L66.4526381,83.6729816 C68.3879053,83.7705361 70.3235337,83.5355825 72.2595233,82.9681208 C73.811207,82.5133037 76.5540659,81.5138591 78.6613871,80.0178684 C80.4979288,78.7141045 81.8064127,76.9111793 82.004553,76.3275122 C82.2882159,75.4919188 82.2882159,74.3387337 82.004553,72.8679569 C80.7765202,71.7259433 79.4416692,70.9523995 78,70.5473256 Z" id="Combined-Shape-Copy-29" fill="#FFA672" mask="url(#mask-2)"></path>
        </g>
        <g id="Group-3-Copy-10" transform="translate(31.000000, 3.000000)" fill="#FFA672">
            <polygon id="Polygon-Copy-43" points="83.8080495 12 98.8080495 33 83.8080495 54 68.8080495 33"></polygon>
            <polygon id="Polygon-Copy-47" points="49.4040248 0 64.4040248 21 49.4040248 42 34.4040248 21"></polygon>
            <polygon id="Polygon-Copy-48" points="15 12 30 33 15 54 0 33"></polygon>
        </g>
    </g>
</svg>
